; generated by Slic3r 1.3.0 on 2021-02-26 at 12:59:42

; external perimeters extrusion width = 0.55mm (4.37mm^3/s)
; perimeters extrusion width = 0.70mm (11.44mm^3/s)
; infill extrusion width = 0.63mm (13.45mm^3/s)
; solid infill extrusion width = 0.70mm (3.81mm^3/s)
; top infill extrusion width = 0.70mm (2.86mm^3/s)
; support material extrusion width = 0.55mm (8.74mm^3/s)

M107
M104 S205 ; set temperature
G28 ; home all axes
G1 Z5 F5000 ; lift nozzle

; Filament gcode

M109 S205 ; set temperature and wait for it to be reached
G21 ; set units to millimeters
G90 ; use absolute coordinates
M82 ; use absolute distances for extrusion
G92 E0
G1 Z0.350 F7800.000
G1 E-2.00000 F2400.00000
G92 E0
G1 X59.915 Y60.753 F7800.000
G1 E2.00000 F2400.00000
G1 F1800
G1 X61.668 Y59.274 E2.07096
G1 X63.820 Y58.481 E2.14192
G1 X65.000 Y58.375 E2.17858
G1 X135.000 Y58.375 E4.34447
G1 X137.259 Y58.772 E4.41543
G1 X139.247 Y59.915 E4.48639
G1 X140.726 Y61.668 E4.55735
G1 X141.519 Y63.820 E4.62832
G1 X141.625 Y65.000 E4.66497
G1 X141.625 Y135.000 E6.83086
G1 X141.228 Y137.259 E6.90182
G1 X140.085 Y139.247 E6.97278
G1 X138.332 Y140.726 E7.04375
G1 X136.180 Y141.519 E7.11471
G1 X135.000 Y141.625 E7.15136
G1 X65.000 Y141.625 E9.31725
G1 X62.741 Y141.228 E9.38821
G1 X60.753 Y140.085 E9.45918
G1 X59.274 Y138.332 E9.53014
G1 X58.481 Y136.180 E9.60110
G1 X58.375 Y135.000 E9.63775
G1 X58.375 Y65.000 E11.80364
G1 X58.772 Y62.741 E11.87461
G1 X59.878 Y60.818 E11.94325
G1 E9.94325 F2400.00000
G92 E0
G1 X133.400 Y133.400 F7800.000
G1 E2.00000 F2400.00000
G1 F1800
G1 X66.600 Y133.400 E4.06689
G1 X66.600 Y66.600 E6.13379
G1 X133.400 Y66.600 E8.20068
G1 X133.400 Y133.325 E10.26525
G1 X134.025 Y134.025 F7800.000
G1 F1800
G1 X65.975 Y134.025 E12.37082
G1 X65.975 Y65.975 E14.47638
G1 X134.025 Y65.975 E16.58194
G1 X134.025 Y133.950 E18.68519
G1 X134.650 Y134.650 F7800.000
G1 F1800
G1 X65.350 Y134.650 E20.82942
G1 X65.350 Y65.350 E22.97365
G1 X134.650 Y65.350 E25.11789
G1 X134.650 Y134.575 E27.25980
G1 X134.167 Y134.521 F7800.000
G1 E25.25980 F2400.00000
G92 E0
G1 X132.532 Y133.018 F7800.000
G1 E2.00000 F2400.00000
G1 F1800
G1 X133.018 Y132.532 E2.02132
G1 X133.018 Y131.646 E2.04880
G1 X131.646 Y133.018 E2.10898
G1 X130.761 Y133.018 E2.13645
G1 X133.018 Y130.761 E2.23548
G1 X133.018 Y129.875 E2.26295
G1 X129.875 Y133.018 E2.40084
G1 X128.989 Y133.018 E2.42831
G1 X133.018 Y128.989 E2.60505
G1 X133.018 Y128.103 E2.63252
G1 X128.103 Y133.018 E2.84811
G1 X127.217 Y133.018 E2.87558
G1 X133.018 Y127.217 E3.13003
G1 X133.018 Y126.331 E3.15750
G1 X126.331 Y133.018 E3.45080
G1 X125.446 Y133.018 E3.47827
G1 X133.018 Y125.446 E3.81042
G1 X133.018 Y124.560 E3.83789
G1 X124.560 Y133.018 E4.20889
G1 X123.674 Y133.018 E4.23637
G1 X133.018 Y123.674 E4.64622
G1 X133.018 Y122.788 E4.67369
G1 X122.788 Y133.018 E5.12240
G1 X121.902 Y133.018 E5.14988
G1 X133.018 Y121.902 E5.63744
G1 X133.018 Y121.017 E5.66491
G1 X121.017 Y133.018 E6.19132
G1 X120.131 Y133.018 E6.21880
G1 X133.018 Y120.131 E6.78406
G1 X133.018 Y119.245 E6.81154
G1 X119.245 Y133.018 E7.41566
G1 X118.359 Y133.018 E7.44313
G1 X133.018 Y118.359 E8.08610
G1 X133.018 Y117.473 E8.11358
G1 X117.473 Y133.018 E8.79540
G1 X116.587 Y133.018 E8.82288
G1 X133.018 Y116.587 E9.54356
G1 X133.018 Y115.702 E9.57103
G1 X115.702 Y133.018 E10.33056
G1 X114.816 Y133.018 E10.35804
G1 X133.018 Y114.816 E11.15642
G1 X133.018 Y113.930 E11.18389
G1 X113.930 Y133.018 E12.02113
G1 X113.044 Y133.018 E12.04860
G1 X133.018 Y113.044 E12.92470
G1 X133.018 Y112.158 E12.95217
G1 X112.158 Y133.018 E13.86711
G1 X111.273 Y133.018 E13.89459
G1 X133.018 Y111.273 E14.84838
G1 X133.018 Y110.387 E14.87586
G1 X110.387 Y133.018 E15.86851
G1 X109.501 Y133.018 E15.89598
G1 X133.018 Y109.501 E16.92748
G1 X133.018 Y108.615 E16.95496
G1 X108.615 Y133.018 E18.02531
G1 X107.729 Y133.018 E18.05279
G1 X133.018 Y107.729 E19.16200
G1 X133.018 Y106.843 E19.18947
G1 X106.843 Y133.018 E20.33753
G1 X105.958 Y133.018 E20.36501
G1 X133.018 Y105.958 E21.55192
G1 X133.018 Y105.072 E21.57939
G1 X105.072 Y133.018 E22.80516
G1 X104.186 Y133.018 E22.83264
G1 X133.018 Y104.186 E24.09726
G1 X133.018 Y103.300 E24.12473
G1 X103.300 Y133.018 E25.42820
G1 X102.414 Y133.018 E25.45568
G1 X133.018 Y102.414 E26.79800
G1 X133.018 Y101.529 E26.82548
G1 X101.529 Y133.018 E28.20666
G1 X100.643 Y133.018 E28.23413
G1 X133.018 Y100.643 E29.65416
G1 X133.018 Y99.757 E29.68164
G1 X99.757 Y133.018 E31.14052
G1 X98.871 Y133.018 E31.16800
G1 X133.018 Y98.871 E32.66574
G1 X133.018 Y97.985 E32.69321
G1 X97.985 Y133.018 E34.22980
G1 X97.099 Y133.018 E34.25728
G1 X133.018 Y97.099 E35.83272
G1 X133.018 Y96.214 E35.86020
G1 X96.214 Y133.018 E37.47449
G1 X95.328 Y133.018 E37.50197
G1 X133.018 Y95.328 E39.15512
G1 X133.018 Y94.442 E39.18259
G1 X94.442 Y133.018 E40.87460
G1 X93.556 Y133.018 E40.90207
G1 X133.018 Y93.556 E42.63293
G1 X133.018 Y92.670 E42.66040
G1 X92.670 Y133.018 E44.43011
G1 X91.785 Y133.018 E44.45758
G1 X133.018 Y91.785 E46.26615
G1 X133.018 Y90.899 E46.29362
G1 X90.899 Y133.018 E48.14104
G1 X90.013 Y133.018 E48.16851
G1 X133.018 Y90.013 E50.05478
G1 X133.018 Y89.127 E50.08225
G1 X89.127 Y133.018 E52.00738
G1 X88.241 Y133.018 E52.03485
G1 X133.018 Y88.241 E53.99882
G1 X133.018 Y87.355 E54.02630
G1 X87.355 Y133.018 E56.02913
G1 X86.470 Y133.018 E56.05660
G1 X133.018 Y86.470 E58.09828
G1 X133.018 Y85.584 E58.12575
G1 X85.584 Y133.018 E60.20629
G1 X84.698 Y133.018 E60.23376
G1 X133.018 Y84.698 E62.35315
G1 X133.018 Y83.812 E62.38062
G1 X83.812 Y133.018 E64.53886
G1 X82.926 Y133.018 E64.56634
G1 X133.018 Y82.926 E66.76343
G1 X133.018 Y82.041 E66.79090
G1 X82.041 Y133.018 E69.02685
G1 X81.155 Y133.018 E69.05432
G1 X133.018 Y81.155 E71.32912
G1 X133.018 Y80.269 E71.35660
G1 X80.269 Y133.018 E73.67025
G1 X79.383 Y133.018 E73.69772
G1 X133.018 Y79.383 E76.05023
G1 X133.018 Y78.497 E76.07770
G1 X78.497 Y133.018 E78.46906
G1 X77.611 Y133.018 E78.49653
G1 X133.018 Y77.611 E80.92675
G1 X133.018 Y76.726 E80.95422
G1 X76.726 Y133.018 E83.42328
G1 X75.840 Y133.018 E83.45076
G1 X133.018 Y75.840 E85.95868
G1 X133.018 Y74.954 E85.98615
G1 X74.954 Y133.018 E88.53292
G1 X74.068 Y133.018 E88.56039
G1 X133.018 Y74.068 E91.14602
G1 X133.018 Y73.182 E91.17349
G1 X73.182 Y133.018 E93.79797
G1 X72.297 Y133.018 E93.82544
G1 X133.018 Y72.297 E96.48877
G1 X133.018 Y71.411 E96.51624
G1 X71.411 Y133.018 E99.21843
G1 X70.525 Y133.018 E99.24590
G1 X133.018 Y70.525 E101.98694
G1 X133.018 Y69.639 E102.01441
G1 X69.639 Y133.018 E104.79430
G1 X68.753 Y133.018 E104.82177
G1 X133.018 Y68.753 E107.64051
G1 X133.018 Y67.867 E107.66799
G1 X67.867 Y133.018 E110.52558
G1 X66.982 Y133.018 E110.55306
G1 X133.018 Y66.982 E113.44950
G1 X132.133 Y66.982 E113.47698
G1 X66.982 Y132.133 E116.33457
G1 X66.982 Y131.247 E116.36205
G1 X131.247 Y66.982 E119.18079
G1 X130.361 Y66.982 E119.20826
G1 X66.982 Y130.361 E121.98815
G1 X66.982 Y129.475 E122.01563
G1 X129.475 Y66.982 E124.75667
G1 X128.589 Y66.982 E124.78414
G1 X66.982 Y128.589 E127.48632
G1 X66.982 Y127.703 E127.51380
G1 X127.704 Y66.982 E130.17713
G1 X126.818 Y66.982 E130.20460
G1 X66.982 Y126.818 E132.82908
G1 X66.982 Y125.932 E132.85656
G1 X125.932 Y66.982 E135.44218
G1 X125.046 Y66.982 E135.46966
G1 X66.982 Y125.046 E138.01643
G1 X66.982 Y124.160 E138.04390
G1 X124.160 Y66.982 E140.55182
G1 X123.274 Y66.982 E140.57930
G1 X66.982 Y123.274 E143.04836
G1 X66.982 Y122.389 E143.07584
G1 X122.389 Y66.982 E145.50605
G1 X121.503 Y66.982 E145.53352
G1 X66.982 Y121.503 E147.92488
G1 X66.982 Y120.617 E147.95236
G1 X120.617 Y66.982 E150.30487
G1 X119.731 Y66.982 E150.33234
G1 X66.982 Y119.731 E152.64599
G1 X66.982 Y118.845 E152.67347
G1 X118.845 Y66.982 E154.94827
G1 X117.960 Y66.982 E154.97574
G1 X66.982 Y117.959 E157.21169
G1 X66.982 Y117.074 E157.23917
G1 X117.074 Y66.982 E159.43626
G1 X116.188 Y66.982 E159.46373
G1 X66.982 Y116.188 E161.62198
G1 X66.982 Y115.302 E161.64945
G1 X115.302 Y66.982 E163.76884
G1 X114.416 Y66.982 E163.79631
G1 X66.982 Y114.416 E165.87685
G1 X66.982 Y113.530 E165.90432
G1 X113.530 Y66.982 E167.94601
G1 X112.645 Y66.982 E167.97348
G1 X66.982 Y112.645 E169.97631
G1 X66.982 Y111.759 E170.00379
G1 X111.759 Y66.982 E171.96776
G1 X110.873 Y66.982 E171.99524
G1 X66.982 Y110.873 E173.92036
G1 X66.982 Y109.987 E173.94784
G1 X109.987 Y66.982 E175.83411
G1 X109.101 Y66.982 E175.86158
G1 X66.982 Y109.101 E177.70900
G1 X66.982 Y108.215 E177.73647
G1 X108.216 Y66.982 E179.54504
G1 X107.330 Y66.982 E179.57251
G1 X66.982 Y107.330 E181.34223
G1 X66.982 Y106.444 E181.36970
G1 X106.444 Y66.982 E183.10056
G1 X105.558 Y66.982 E183.12803
G1 X66.982 Y105.558 E184.82004
G1 X66.982 Y104.672 E184.84751
G1 X104.672 Y66.982 E186.50067
G1 X103.786 Y66.982 E186.52814
G1 X66.982 Y103.786 E188.14244
G1 X66.982 Y102.901 E188.16991
G1 X102.901 Y66.982 E189.74536
G1 X102.015 Y66.982 E189.77283
G1 X66.982 Y102.015 E191.30943
G1 X66.982 Y101.129 E191.33690
G1 X101.129 Y66.982 E192.83464
G1 X100.243 Y66.982 E192.86212
G1 X66.982 Y100.243 E194.32101
G1 X66.982 Y99.357 E194.34848
G1 X99.357 Y66.982 E195.76852
G1 X98.472 Y66.982 E195.79599
G1 X66.982 Y98.471 E197.17717
G1 X66.982 Y97.586 E197.20464
G1 X97.586 Y66.982 E198.54697
G1 X96.700 Y66.982 E198.57445
G1 X66.982 Y96.700 E199.87792
G1 X66.982 Y95.814 E199.90540
G1 X95.814 Y66.982 E201.17002
G1 X94.928 Y66.982 E201.19749
G1 X66.982 Y94.928 E202.42327
G1 X66.982 Y94.042 E202.45074
G1 X94.042 Y66.982 E203.63766
G1 X93.157 Y66.982 E203.66513
G1 X66.982 Y93.157 E204.81319
G1 X66.982 Y92.271 E204.84067
G1 X92.271 Y66.982 E205.94988
G1 X91.385 Y66.982 E205.97735
G1 X66.982 Y91.385 E207.04771
G1 X66.982 Y90.499 E207.07518
G1 X90.499 Y66.982 E208.10669
G1 X89.613 Y66.982 E208.13416
G1 X66.982 Y89.613 E209.12682
G1 X66.982 Y88.727 E209.15429
G1 X88.728 Y66.982 E210.10809
G1 X87.842 Y66.982 E210.13556
G1 X66.982 Y87.842 E211.05051
G1 X66.982 Y86.956 E211.07798
G1 X86.956 Y66.982 E211.95408
G1 X86.070 Y66.982 E211.98155
G1 X66.982 Y86.070 E212.81879
G1 X66.982 Y85.184 E212.84626
G1 X85.184 Y66.982 E213.64465
G1 X84.298 Y66.982 E213.67212
G1 X66.982 Y84.298 E214.43166
G1 X66.982 Y83.413 E214.45913
G1 X83.413 Y66.982 E215.17981
G1 X82.527 Y66.982 E215.20729
G1 X66.982 Y82.527 E215.88911
G1 X66.982 Y81.641 E215.91659
G1 X81.641 Y66.982 E216.55956
G1 X80.755 Y66.982 E216.58704
G1 X66.982 Y80.755 E217.19116
G1 X66.982 Y79.869 E217.21863
G1 X79.869 Y66.982 E217.78390
G1 X78.984 Y66.982 E217.81138
G1 X66.982 Y78.983 E218.33779
G1 X66.982 Y78.098 E218.36526
G1 X78.098 Y66.982 E218.85283
G1 X77.212 Y66.982 E218.88030
G1 X66.982 Y77.212 E219.32901
G1 X66.982 Y76.326 E219.35649
G1 X76.326 Y66.982 E219.76634
G1 X75.440 Y66.982 E219.79382
G1 X66.982 Y75.440 E220.16482
G1 X66.982 Y74.554 E220.19229
G1 X74.554 Y66.982 E220.52445
G1 X73.669 Y66.982 E220.55192
G1 X66.982 Y73.669 E220.84522
G1 X66.982 Y72.783 E220.87269
G1 X72.783 Y66.982 E221.12714
G1 X71.897 Y66.982 E221.15461
G1 X66.982 Y71.897 E221.37020
G1 X66.982 Y71.011 E221.39767
G1 X71.011 Y66.982 E221.57441
G1 X70.125 Y66.982 E221.60189
G1 X66.982 Y70.125 E221.73977
G1 X66.982 Y69.240 E221.76725
G1 X69.240 Y66.982 E221.86628
G1 X68.354 Y66.982 E221.89375
G1 X66.982 Y68.354 E221.95393
G1 X66.982 Y67.468 E221.98141
G1 X67.468 Y66.982 E222.00273
G1 Z0.350 F7800.000
M104 S200 ; set temperature
G1 Z0.425 F7800.000
G1 Z0.650 F7800.000
G1 X133.529 Y133.529 F7800.000
G1 F3600
G1 X66.471 Y133.529 E223.81171
G1 X66.471 Y66.471 E225.62069
G1 X133.529 Y66.471 E227.42967
G1 X133.529 Y133.454 E229.23663
G1 X134.164 Y134.164 F7800.000
G1 F3600
G1 X65.836 Y134.164 E231.07990
G1 X65.836 Y65.836 E232.92317
G1 X134.164 Y65.836 E234.76645
G1 X134.164 Y134.089 E236.60770
G1 X134.725 Y134.725 F7800.000
G1 F1800
G1 X65.275 Y134.725 E238.03908
G1 X65.275 Y65.275 E239.47047
G1 X134.725 Y65.275 E240.90186
G1 X134.725 Y134.650 E242.33170
G1 X134.242 Y134.596 F7800.000
G1 X133.140 Y67.354 F7800.000
G1 F1200
G1 X132.646 Y66.860 E242.35061
G1 X131.745 Y66.860 E242.37499
G1 X133.140 Y68.255 E242.42837
G1 X133.140 Y69.157 E242.45274
G1 X130.843 Y66.860 E242.54059
G1 X129.942 Y66.860 E242.56496
G1 X133.140 Y70.058 E242.68728
G1 X133.140 Y70.959 E242.71165
G1 X129.041 Y66.860 E242.86844
G1 X128.140 Y66.860 E242.89281
G1 X133.140 Y71.860 E243.08406
G1 X133.140 Y72.761 E243.10844
G1 X127.239 Y66.860 E243.33416
G1 X126.338 Y66.860 E243.35853
G1 X133.140 Y73.662 E243.61872
G1 X133.140 Y74.564 E243.64309
G1 X125.436 Y66.860 E243.93774
G1 X124.535 Y66.860 E243.96212
G1 X133.140 Y75.465 E244.29124
G1 X133.140 Y76.366 E244.31561
G1 X123.634 Y66.860 E244.67920
G1 X122.733 Y66.860 E244.70358
G1 X133.140 Y77.267 E245.10163
G1 X133.140 Y78.168 E245.12601
G1 X121.832 Y66.860 E245.55853
G1 X120.930 Y66.860 E245.58290
G1 X133.140 Y79.070 E246.04990
G1 X133.140 Y79.971 E246.07427
G1 X120.029 Y66.860 E246.57573
G1 X119.128 Y66.860 E246.60010
G1 X133.140 Y80.872 E247.13603
G1 X133.140 Y81.773 E247.16041
G1 X118.227 Y66.860 E247.73080
G1 X117.326 Y66.860 E247.75518
G1 X133.140 Y82.674 E248.36004
G1 X133.140 Y83.575 E248.38441
G1 X116.425 Y66.860 E249.02374
G1 X115.523 Y66.860 E249.04812
G1 X133.140 Y84.477 E249.72192
G1 X133.140 Y85.378 E249.74629
G1 X114.622 Y66.860 E250.45455
G1 X113.721 Y66.860 E250.47893
G1 X133.140 Y86.279 E251.22166
G1 X133.140 Y87.180 E251.24603
G1 X112.820 Y66.860 E252.02324
G1 X111.919 Y66.860 E252.04761
G1 X133.140 Y88.081 E252.85928
G1 X133.140 Y88.982 E252.88365
G1 X111.018 Y66.860 E253.72979
G1 X110.116 Y66.860 E253.75416
G1 X133.140 Y89.884 E254.63477
G1 X133.140 Y90.785 E254.65914
G1 X109.215 Y66.860 E255.57421
G1 X108.314 Y66.860 E255.59858
G1 X133.140 Y91.686 E256.54812
G1 X133.140 Y92.587 E256.57250
G1 X107.413 Y66.860 E257.55650
G1 X106.512 Y66.860 E257.58088
G1 X133.140 Y93.488 E258.59935
G1 X133.140 Y94.390 E258.62372
G1 X105.610 Y66.860 E259.67667
G1 X104.709 Y66.860 E259.70104
G1 X133.140 Y95.291 E260.78845
G1 X133.140 Y96.192 E260.81282
G1 X103.808 Y66.860 E261.93470
G1 X102.907 Y66.860 E261.95907
G1 X133.140 Y97.093 E263.11542
G1 X133.140 Y97.994 E263.13979
G1 X102.006 Y66.860 E264.33061
G1 X101.105 Y66.860 E264.35498
G1 X133.140 Y98.895 E265.58026
G1 X133.140 Y99.797 E265.60463
G1 X100.203 Y66.860 E266.86438
G1 X99.302 Y66.860 E266.88875
G1 X133.140 Y100.698 E268.18297
G1 X133.140 Y101.599 E268.20734
G1 X98.401 Y66.860 E269.53603
G1 X97.500 Y66.860 E269.56040
G1 X133.140 Y102.500 E270.92355
G1 X133.140 Y103.401 E270.94792
G1 X96.599 Y66.860 E272.34554
G1 X95.697 Y66.860 E272.36991
G1 X133.140 Y104.303 E273.80200
G1 X133.140 Y105.204 E273.82637
G1 X94.796 Y66.860 E275.29293
G1 X93.895 Y66.860 E275.31730
G1 X133.140 Y106.105 E276.81832
G1 X133.140 Y107.006 E276.84270
G1 X92.994 Y66.860 E278.37819
G1 X92.093 Y66.860 E278.40256
G1 X133.140 Y107.907 E279.97252
G1 X133.140 Y108.808 E279.99689
G1 X91.192 Y66.860 E281.60131
G1 X90.290 Y66.860 E281.62568
G1 X133.140 Y109.710 E283.26458
G1 X133.140 Y110.611 E283.28895
G1 X89.389 Y66.860 E284.96231
G1 X88.488 Y66.860 E284.98668
G1 X133.140 Y111.512 E286.69451
G1 X133.140 Y112.413 E286.71888
G1 X87.587 Y66.860 E288.46118
G1 X86.686 Y66.860 E288.48555
G1 X133.140 Y113.314 E290.26231
G1 X133.140 Y114.216 E290.28669
G1 X85.785 Y66.860 E292.09792
G1 X84.883 Y66.860 E292.12229
G1 X133.140 Y115.117 E293.96799
G1 X133.140 Y116.018 E293.99236
G1 X83.982 Y66.860 E295.87253
G1 X83.081 Y66.860 E295.89690
G1 X133.140 Y116.919 E297.81153
G1 X133.140 Y117.820 E297.83590
G1 X82.180 Y66.860 E299.78501
G1 X81.279 Y66.860 E299.80938
G1 X133.140 Y118.721 E301.79295
G1 X133.140 Y119.623 E301.81732
G1 X80.377 Y66.860 E303.83536
G1 X79.476 Y66.860 E303.85973
G1 X133.140 Y120.524 E305.91223
G1 X133.140 Y121.425 E305.93660
G1 X78.575 Y66.860 E308.02358
G1 X77.674 Y66.860 E308.04795
G1 X133.140 Y122.326 E310.16939
G1 X133.140 Y123.227 E310.19376
G1 X76.773 Y66.860 E312.34967
G1 X75.872 Y66.860 E312.37404
G1 X133.140 Y124.128 E314.56441
G1 X133.140 Y125.030 E314.58879
G1 X74.970 Y66.860 E316.81363
G1 X74.069 Y66.860 E316.83800
G1 X133.140 Y125.931 E319.09731
G1 X133.140 Y126.832 E319.12168
G1 X73.168 Y66.860 E321.41546
G1 X72.267 Y66.860 E321.43983
G1 X133.140 Y127.733 E323.76808
